X:1
T:Title
%%score [ ( 1 2 ) ( 3 4 ) ]
L:1/8
Q:1/4=120
M:4/4
K:C
V:1 treble nm=" " snm=" "
V:2 treble 
V:3 treble nm="Midi_74"
V:4 treble 
V:1
[K:Bb]"^G.H. Bourne\n1840-1925" B2 B2 B2 D2 |"^Lord, enthroned in heavenly splendour" G3 F D2 C2 | %2
w: Lord, en- throned in|hea'vn- ly splen- dour,|
w: ||
w: Though the low- liest|form doth veil thee|
 B,2 B,2 G2 F2 | F2 G2"^George Martin\n1844-1916" A4 || F3 F c2 B2 | B3 A G2 F2 | F2 d2 c2 A2 | %7
w: first- be- got- ten|from the dead,|thou a- lone, our|strong de- fen- der,|lift- est up thy|
w: |||||
w: as of old in|Beth- le- hem,|here as there thine|an- gels hail thee,|branch and flow'r of|
 G2 G2 F4 | c3 c d2 c2 | d3 d e2 d2 | F2 B2 d2 c2 | B2 A2 B4 | B2 B2 B2 D2 | G3 F D2 C2 | %14
w: peo- ple's head.|Al- le- lu- ia,|al- le- lu- ia,|Je- su, true and|liv- ing bread!|Life- im- par- ting|heav'n- ly Man- na,|
w: |||||||
w: Jes- se's stem.|||we in wor- ship|join with them.|||
 B,2 B,2 G2 F2 | F2 G2 A4 | F3 F c2 B2 | B3 A G2 F2 | F2 d2 c2 A2 | G2 G2 F4 | c3 c d2 c2 | %21
w: strick- en Rock with|stream- ing side,|heav'n and earth with|loud ho- san- na|wor- ship thee, the|Lamb who died,|Al- le- lu- ia,|
w: |||||||
w: |||||||
 d3 d e2 d2 | B2 d2 f2 e2 | d2 c2 d4 |] %24
w: al- le- lu- ia,|ris'n, a- scend- ed,|glo- ri- fied!|
w: |||
w: |||
V:2
[K:Bb] B2 B2 B2 D2 | G3 F D2 C2 | B,2 B,2 G2 F2 | F2 G2 A4 || C3 F F2 F2 | E3 E E2 E2 | %6
w: ||||||
w: Here our hum- blest|hom- age pay we;|here in lov- ing|rev- 'rence bow;|here for faith's dis-|cern- ment pray we,|
w: ||||||
w: Pas- chal Lamb, thine|Off- 'ring, fin- ished|once for all when|thou wast slain,|in its ful- ness|un- di- min- ished|
 D2 F2 F2 F2 | F2 =E2 F4 | F3 F F2 F2 | F3 F F2 F2 | F2 F2 _A2 G2 | F2 F2 F4 | x8 | x8 | x8 | x8 | %16
w: ||||||||||
w: lest we fail to|know thee now.|||thou art here, we|ask not how.|||||
w: ||||||||||
w: shall for ev- er-|more re- main,|||clean- sing souls from|ev'- ry stain.|||||
 C3 F F2 F2 | E3 E E2 E2 | D2 F2 F2 F2 | F2 =E2 F4 | c3 c d2 c2 | d3 d e2 d2 | F2 B2 d2 c2 | %23
w: |||||||
w: |||||||
w: |||||||
w: |||||||
 B2 A2 B4 |] %24
w: |
w: |
w: |
w: |
V:3
 z8 | z8 | z8 | z8 ||[K:Bb][M:4/4][K:bass] A,3 A, A,2 B,2 | F,3 F, C2 C2 | B,2 B,2 C2 C2 | %7
 C2 B,2 A,4 | A,3 A, B,2 A,2 | B,3 B, B,2 B,2 | B,2 D2 F2 E2 | D2 C2 D4 |[M:4/4] z8 | z8 | z8 | %15
 z8 |[M:4/4] A,3 A, A,2 B,2 | F,3 F, C2 C2 | B,2 B,2 C2 C2 | C2 B,2 A,4 | %20
"^This edition produced by Andrew Sims 2014" C3 C D2 C2 | D3 D E2 D2 | F,2 B,2 D2 C2 | %23
 B,2 A,2 B,4 |] %24
V:4
 x8 | x8 | x8 | x8 ||[K:Bb][M:4/4][K:bass] F,3 F, E,2 D,2 | C,3 C, B,,2 A,,2 | B,,2 B,2 A,2 F,2 | %7
 C,2 C,2 F,4 | F,3 F, B,2 F,2 | B,3 B, E,2 B,,2 | D,2 B,2 =B,2 C2 | F,2 F,2 B,,4 |[M:4/4] x8 | x8 | %14
 x8 | x8 |[M:4/4] F,3 F, E,2 D,2 | C,3 C, B,,2 A,,2 | B,,2 B,2 A,2 F,2 | C,2 C,2 F,4 | C3 C D2 C2 | %21
 D3 D E2 D2 | F,2 B,2 D2 C2 | B,2 A,2 B,4 |] %24

